packages/gamut-icons/src/stackoverflow.svg

<?xml version="1.0" encoding="utf-8"?>
<!-- Generated by IcoMoon.io -->
<!DOCTYPE svg PUBLIC "-//W3C//DTD SVG 1.1//EN" "http://www.w3.org/Graphics/SVG/1.1/DTD/svg11.dtd">
<svg version="1.1" xmlns="http://www.w3.org/2000/svg" xmlns:xlink="http://www.w3.org/1999/xlink" width="16" height="16" viewBox="0 0 16 16">
<path fill="#444" d="M1.7 9.4v6.6h10.5v-6.6h-1.1v5.6h-8.3v-5.6z"></path>
<path fill="#444" d="M3.7 12.4h6.3v1.4h-6.3v-1.4z"></path>
<path fill="#444" d="M3.875 10.129l6.276 0.549-0.122 1.395-6.276-0.549 0.122-1.395z"></path>
<path fill="#444" d="M4.488 7.302l6.085 1.63-0.362 1.352-6.085-1.63 0.362-1.352z"></path>
<path fill="#444" d="M5.868 4.189l5.456 3.15-0.7 1.212-5.456-3.15 0.7-1.212z"></path>
<path fill="#444" d="M9.107 1.28l3.614 5.161-1.147 0.803-3.614-5.161 1.147-0.803z"></path>
<path fill="#444" d="M13.247-0.023l1.094 6.204-1.379 0.243-1.094-6.204 1.379-0.243z"></path>
</svg>

<svg xmlns="http://www.w3.org/2000/svg" viewBox="0 0 16 16">
    <path fill="#444" d="M1.7 9.4V16h10.5V9.4h-1.1V15H2.8V9.4z"/>
    <path fill="#444" d="M3.7 12.4H10v1.4H3.7v-1.4zm.175-2.271l6.276.549-.122 1.395-6.276-.549.122-1.395zm.613-2.827l6.085 1.63-.362 1.352-6.085-1.63.362-1.352zm1.38-3.113l5.456 3.15-.7 1.212-5.456-3.15.7-1.212zM9.107 1.28l3.614 5.161-1.147.803L7.96 2.083l1.147-.803zm4.14-1.303l1.094 6.204-1.379.243L11.868.22l1.379-.243z"/>
</svg>
